assets/logo.svg

<?xml version="1.0" encoding="UTF-8" standalone="no"?>
<svg
   xmlns:dc="http://purl.org/dc/elements/1.1/"
   xmlns:cc="http://creativecommons.org/ns#"
   xmlns:rdf="http://www.w3.org/1999/02/22-rdf-syntax-ns#"
   xmlns:svg="http://www.w3.org/2000/svg"
   xmlns="http://www.w3.org/2000/svg"
   width="24mm"
   height="24mm"
   viewBox="0 0 24 24"
   version="1.1"
   id="svg8">
  <defs
     id="defs2" />
  <metadata
     id="metadata5">
    <rdf:RDF>
      <cc:Work
         rdf:about="">
        <dc:format>image/svg+xml</dc:format>
        <dc:type
           rdf:resource="http://purl.org/dc/dcmitype/StillImage" />
        <dc:title></dc:title>
      </cc:Work>
    </rdf:RDF>
  </metadata>
  <g
     id="layer1">
    <path
       style="fill:#000000;stroke-width:0.020484"
       d="m 11.684572,23.961986 c -0.285798,-0.0739 -0.36528,-0.130927 -0.863466,-0.61951 C 10.569623,23.095837 8.0876645,20.617351 5.3056434,17.834729 1.2712563,13.79947 0.23163852,12.749094 0.1694416,12.64538 0.0430602,12.434638 0,12.269716 0,11.996411 0,11.723176 0.04299996,11.558426 0.1694416,11.347214 0.23180575,11.24304 1.2501216,10.213977 5.254248,6.208743 11.279616,0.18170639 11.239177,0.2216322 11.402062,0.13889751 11.630026,0.02310683 11.7295,0 12,0 c 0.270554,0 0.370119,0.02313698 0.597938,0.13894959 0.162874,0.0827972 0.08235,0.003295 6.116992,6.03940741 4.022126,4.023107 5.053367,5.065106 5.115629,5.168997 C 23.956963,11.558278 24,11.723133 24,11.996411 c 0,0.273335 -0.04309,0.438332 -0.169441,0.64887 -0.06212,0.103511 -1.110808,1.162956 -5.156784,5.209699 -6.058089,6.059236 -5.912168,5.915184 -6.079673,6.001801 -0.274101,0.14174 -0.615515,0.181232 -0.90953,0.105205 z m 6.93916,-11.06614 -1.840226,-0.0062 -1.607313,1.599463 -1.607312,1.599463 L 11.356654,13.905228 9.1444274,11.721845 8.551464,12.306836 7.9585013,12.891825 H 5.7421562 3.5258108 l 4.2370764,4.182004 4.2370758,4.182005 4.231998,-4.176917 4.231998,-4.176917 z m -4.017113,-0.767158 1.036606,-1.027693 h 2.415482 2.415483 L 16.237114,6.91899 12.000038,2.7369861 7.7680398,6.913902 l -4.2319993,4.176917 1.6441599,0.0052 1.6441592,0.0052 1.1663822,-1.1510801 1.1663833,-1.1510798 2.1946339,2.1770649 c 1.207048,1.197386 2.199947,2.17778 2.206443,2.178652 0.0065,8.69e-4 0.478282,-0.460876 1.048417,-1.026109 z"
       id="path72" />
  </g>
</svg>

<svg xmlns="http://www.w3.org/2000/svg" viewBox="0 0 24 24"><path d="M11.685 23.962c-.286-.074-.366-.13-.864-.62-.251-.246-2.733-2.725-5.515-5.507C1.27 13.799.232 12.749.169 12.645.043 12.435 0 12.27 0 11.996c0-.273.043-.438.17-.649.062-.104 1.08-1.133 5.084-5.138C11.28.182 11.24.222 11.402.139 11.63.023 11.73 0 12 0c.27 0 .37.023.598.139.163.083.082.003 6.117 6.04 4.022 4.022 5.053 5.064 5.116 5.168.126.211.169.376.169.65 0 .273-.043.438-.17.648-.062.104-1.11 1.163-5.156 5.21-6.058 6.06-5.912 5.915-6.08 6.002a1.32 1.32 0 01-.91.105zm6.939-11.066l-1.84-.006-1.608 1.6-1.607 1.599-2.212-2.184-2.213-2.183-.593.585-.592.585H3.526l4.237 4.182L12 21.256l4.232-4.177 4.232-4.177zm-4.017-.767l1.036-1.028H20.474l-4.237-4.182L12 2.737 7.768 6.914 3.536 11.09l1.644.005 1.644.005 1.167-1.15 1.166-1.152 2.195 2.177a338.08 338.08 0 002.206 2.179c.007 0 .478-.461 1.049-1.026z"/></svg>
